T: Doug MacPhee's Clog
M: 4/4
L: 1/8
K: Fmaj
|: c/B/ |A2 F>C A,>CF>A | c2 (3ABc f>cA<c | B2 G>E C>EG>A | B>AB<c d>cB<c |
A2 F>C A,>CF>A | c2 (3ABc f>cA<c | B2 G>E C>EG>B | A>FG>E F2 F :|
|: A/B/ |c2 A>c f>cA<c | d2 B>d g>ec<d | c2 A>c f>cA<c | B>AG<F G2 A>B |
c2 A>c f>cA<c | d2 B>d g>ec<d | e>dc<A B>GE>C | F2 F<E F3 :|
